dist/assets/svg/fullscreen.svg

<svg xmlns="http://www.w3.org/2000/svg" width="35" height="35" fill="none" viewBox="0 0 35 35"><path fill="#B3B3B3" d="M30.6055 30.7513H22.4097V34.8638H34.7083V22.5069H30.6055V30.7513ZM4.10278 22.5069H0V34.8638H12.2986V30.7513H4.10278V22.5069ZM0 12.3569H4.10278V4.12222H12.2986V0H0V12.3569ZM22.4097 0V4.12222H30.6055V12.3569H34.7083V0H22.4097Z"/></svg>

<svg xmlns="http://www.w3.org/2000/svg" width="35" height="35" fill="none" viewBox="0 0 35 35"><path fill="#B3B3B3" d="M30.606 30.751H22.41v4.113h12.298V22.507h-4.102zM4.103 22.507H0v12.357h12.299V30.75H4.103zM0 12.357h4.103V4.122h8.196V0H0zM22.41 0v4.122h8.196v8.235h4.102V0z"/></svg>
